X: 2044
T: Zeyn Eden Bağ-ı Cihânı 
C: Dede Efendi
O: Turkey
F: http://compmusic.upf.edu/node/140
N: neva--murabba--muhammes--zeyn_eden--dede_efendi
N: makam= neva
N: form= murabba
N: usul= muhammes = 32/4
M: 32/4
L: 1/16
K: C _2/4B ^3/4f  
Q: 1/4=60
%%MIDI tuningsystem comma53
d2 z2 d2 e2 d4 c2 _1/4B2  | c d3 c2 _1/4B2 z2 g2 ^f2 g a  | \
w:   |   | 
g2 ^f4 d2 e2 g2 =f2 e2  | 
w:   | 
d2 c4 d4 e d e2 d4 z4 c2 d2 c4 d2  | \
w:   | 
e2 e d e2 d2 c2 z2 d e d2  | 
w:   | 
e2 g2 =f2 e2 d2 e2 d2 c2  | _1/4B2 d c d2 c B c2 d2 c2 e2  | \
w:   |   | 
d c c4 z4 d2 e2 ^f4 g2 a2 g2 f2 g2 f2 e2  | 
w:   | 
d2 c _1/4B g2 ^f ^1/4e f2 z2 =e f e2  | \
w:   | 
^f g f2 a2 g2 f2 e2 z2 d e  | 
w:   | 
d2 e =f e2 g2 f2 e2 d2 z4 c2 d2 d6 _1/4B2 c2  | \
w:   | 
d2 c2 _1/4B2 z2 g2 ^f2 g a g2  | 
w:   | 
^f4 d2 e2 =f2 e2 d2 c4 d4 d4 z4 g8 g6 ^f2 g2  | \
w:   | 
a2 g2 ^f2 g4 a4 z2  | c'2 _1/4b2 a2 a2 g4 ^f2 a g  | 
w:   |   | 
^f e f2 g2 g f f ^1/4e f4 z4 =e2 f2 g4 f2 e2 c'2  | \
w:   | 
a2 g2 ^f2 e2 d2 c _1/4B g2 f e  | 
w:   | 
^f2 z2 f4 g2 f e e3 d  | g3 ^f g3 f e4 e2 g2  | \
w:   |   | 
^f e d4 z4 c2 d2 d8 d4 c2 _1/4B2 z2  | 
w:   | 
c4 d2 d6 _1/4B2 c2  | d2 c2 _1/4B2 d c d2 c B c2 d2  | \
w:   |   | 
c2 e2 d c c4 z4 d2  | 
w:   | 
e2 ^f4 g2 a2 g2 =f2 e2  | d2 c2 e2 d2 c2 d2 c2 _1/4B2  | \
w:   |   | 
A2 A8 c4 d4 d6 z2 d2 z2 d2  | 
w:   | 
e2 d4 c2 _1/4B2 c d3 c2  | _1/4B2 z2 g2 ^f2 g a g2 f4  | \
w:   |   | 
d2 e2 g2 =f2 e2 d2 c4  | 
w:   | 
d4 e d e2 d4 z4  | c2 d2 c4 d2 e2 e d e2  | \
w:   |   | 
d2 c2 z2 d e d2 e2 g2 =f2  | 
w:   | 
e2 d2 e2 d2 c2 _1/4B2 d c d2  | c _1/4B c2 d2 c2 e2 d c c4  | \
w:   |   | 
z4 d2 e2 ^f4 g2 a2  | 
w:   | 
g2 ^f2 g2 f2 e2 d2 c _1/4B g2  | ^f ^1/4e f2 z2 =e f e2 f g f2 a2  | \
w:   |   | 
g2 ^f2 e2 z2 d e d2 e =f e2  | 
w:   | 
g2 =f2 e2 d2 z4 c2 d2  | d6 _1/4B2 c2 d2 c2 B2  | \
w:   |   | 
z2 g2 ^f2 g a g2 f4 d2  | 
w:   | 
e2 =f2 e2 d2 c4 d4  | d4 z4 g8  | g6 ^f2 g2 a2 g2 f2  | \
w:   |   |   | 
g4 a4 z2 c'2 _1/4b2 a2  | 
w:   | 
a2 g4 ^f2 a g f e f2 g2  | g ^f f ^1/4e f4 z4 =e2 f2  | \
w:   |   | 
g4 ^f2 e2 c'2 a2 g2 f2  | 
w:   | 
e2 d2 c _1/4B g2 ^f e f2 z2 f4 g2 f e e3 d g3 f g3 f e4 e2 g2 f e d4  | 
w:   | 
z4 c2 d2 d8  | d4 c2 _1/4B2 z2 c4 d2  | \
w:   |   | 
d6 _1/4B2 c2 d2 c2 B2  | d c d2 c _1/4B c2 d2 c2 e2 d c  | 
w:   |   | 
c4 z4 d2 e2 ^f4  | g2 a2 g2 =f2 e2 d2 c2 e2  | \
w:   |   | 
d2 c2 d2 c2 _1/4B2 A2 A8 g4 a4 a6 z2 a2 z2 ^f2 g2 a4  | 
w:   | 
a4 a8 z2 a4 c'2 c'2 a4 ^f2 g2 a2  | \
w:   | 
g2 ^f2 g4 a4 a4  | z4 c'3 _1/4b b3 a a3 g  | 
w:   |   | 
g3 ^f f2 g2 f2 e2 z2 g2  | ^f2 g a g2 f4 d2 e2 g2  | \
w:   |   | 
=f2 e2 d2 c4 d4 d4 z4 z4 g2 g2 g6 ^f2 g2 a2 g2 f2 z2  | 
w:   | 
g4 a2 a2 c'2 _1/4b2 a2 g4 ^f4 g f g a g2 f2 _7/8e4 d4 z4 d2 e2 f4 a2 g4 f2 e4 d2  | 
w:   | 
z2 a2 g2 a2 g2 ^f4 d2  | _7/8e d e ^f e2 d2 d12 z4 a8  | \
w:   |   | 
a2 g2 =f2 g2 _7/8b2 a2 c'2 b2  | 
w:   | 
a2 a6 z2 z2 a4  | g2 g2 a2 g2 =f2 a g a _7/8b a2  | \
w:   |   | 
g2 g =f f e e d d ^c d2 z2 c'2  | 
w:   | 
_7/8b2 a4 g2 a2 g2 =f4  | _1/4e2 z2 e4 e2 e2 d4  | \
w:   |   | 
c2 d2 c2 g ^f _7/8e d d2 c2 _1/4B2  | 
w:   | 
_7/8e2 d c c8 z4  | d2 _1/4e2 =f4 g2 a2 g2 ^f4 e2 z2 f4 g2 =f4  | \
w:   |   | 
g2 g2 g2 a2 g2 =f2 f2 g2  | 
w:   | 
=f2 _1/4e2 e2 d2 c2 e2 d c c2  | z2 d2 _1/4e2 =f4 g2 a2 g2  | \
w:   |   | 
=f4 _1/4e2 z2 f4 g a g2  | 
w:   | 
=f4 _1/4e2 e2 g2 f2 e2 d2  | z4 c4 d4 d4  | \
w:   |   | 
z4 d2 z2 d2 e2 d4  | c2 _1/4B2 c d3 c2 B2 z2 g2  | 
w:   |   | 
^f2 g a g2 f4 d2 e2 g2  | =f2 e2 d2 c4 d4 e d  | \
w:   |   | 
e2 d4 z4 c2 d2 c4 d2 e2 e d e2 d2 c2 z2  | 
w:   | 
d e d2 e2 g2 =f2 e2 d2 e2  | d2 c2 _1/4B2 d c d2 c B c2 d2  | \
w:   |   | 
c2 e2 d c c4 z4 d2  | 
w:   | 
e2 ^f4 g2 a2 g2 f2 g2  | ^f2 e2 d2 c _1/4B g2 f ^1/4e f2 z2  | \
w:   |   | 
e ^f e2 f g f2 a2 g2 f2 e2  | 
w:   | 
z2 d e d2 e =f e2 g2 f2 e2  | d2 z4 c2 d2 d6  | \
w:   |   | 
_1/4B2 c2 d2 c2 B2 z2 g2 ^f2  | 
w:   | 
g a g2 ^f4 d2 e2 =f2 e2  | d2 c4 d4 d4 z4 g8 g6  | \
w:   |   | 
^f2 g2 a2 g2 f2 g4 a4 z2 c'2 _1/4b2 a2 a2 g4  | 
w:   | 
^f2 a g f e f2 g2 g f f ^1/4e f4 z4 =e2 f2 g4 f2  | \
w:   | 
e2 c'2 a2 g2 ^f2 e2 d2 c _1/4B  | 
w:   | 
g2 ^f e f2 z2 f4 g2 f e  | e3 d g3 ^f g3 f e4  | \
w:   |   | 
e2 g2 ^f e d4 z4 c2  | 
w:   | 
d2 d8 d4 c2  | _1/4B2 z2 c4 d2 d6  | \
w:   |   | 
_1/4B2 c2 d2 c2 B2 d c d2 c B  | c2 d2 c2 e2 d c c4 z4 d2 e2 ^f4 g2 a2 g2  | 
w:   |   | 
=f2 e2 d2 c2 e2 d2 c2 d2  | c2 _1/4B2 A2 A8 |
w:   |   | 


